X:1
T:Title
%%score ( 1 2 )
L:1/8
Q:1/4=120
M:2/4
K:C
V:1 bass nm="Part_1"
V:2 bass 
V:1
!ppp!!f! z4 | A,,2 !wedge!^G,,2 E,,2 |!mp! B,,2 C,2 | F,2 E,4 D,2- | D,2 C,4 D,2 | C,4 B,,4 | %6
 z4 B,,4- | B,,2 F,,4 E,,2 | B,2 C2 D4 E2 | z2 F4 E2- | E2 D2 E2 | C4 | z2 G,2 | A,3 B, C z2 | %14
 z2 B,2 | C3 EF G2 | z2 ^G2 =F2 E2 | z2 E2 | z2 F2 | E4 z | A4 | A2 .G4 E2 | A2 B2 c2 | z2 e4 | %24
 d2 z z | z B4 | z4 B4 |[M:3/4] =F4 E2 | z/ c2 d2 e2 | !tenuto!g2 !wedge!f4 e2- | e2 z2 e2 | %31
 d4 z x |[M:2/4] z2 z2 !wedge!^G2 | B c d x | z2 [ce]4 B2 G2 | c3 [de]/f/ g2 x | z2 f2 d2 ^d2 | %37
 e3 c B B2 |[K:G] z2 E3 E |[K:F] !fermata!A,4 |!mf! !wedge!!tenuto!F,4 | C4- CC,D,E, | F,4 A,4 | %43
[M:2/2] (z C)F, x5 |[M:4/4] B,D G,2 B,2 E,2- | E,G, [B,,C,]2 D,E,F, x |[M:2/4][K:bass+8] z4 | %47
 C, G,,C,D,E, | E,4 x2 | !>!CF, !wedge!G, x | B,4 | !tenuto!FD CB, | %52
[M:2/4][K:bass] F,2 [B,,D,]2 B, (z2 G,)C C,2[K:bass-8] .C,C,C, D,4 C,D,E, | F,4 z4 | !wedge!A,,4 | %55
 E,,A,, E,4 G,2 F,E, |[M:2/4][K:bass+8] !wedge!D,,A,,, D,2- D,D,,,C,,, | z x3 | F,,,E,,, x2 | %59
 z2 G,,,4 | C,,G,,, C,,, C,,,/F,,,G,,, | !wedge!^G,,,4 | A,,,,E,,, [D,,,F,,,]4 | E,,,4 | %64
 E,,C,, A,,,4 E,,,2 | (!tenuto!E,,2 x2 | E,,2 !tenuto!E,,,2) E,,,2 | E,,,,2 E,,,4!p! (z | %68
 E,,,,2) .E,,,2 E,,,,2 E,,,2 |!f! !tenuto!A,,,,4 | ^G,,,,4 E,,,,2 | A,,,,2 !wedge!B,,,,2 | %72
 F,,,2 E,,,4 D,,,2 | !>!MC,,,4 .D,,,2 | !>!MC,,,4 B,,,,4 | B,,,,4- | %76
 !>!B,,,,2 !wedge!.F,,,,4 E,,,,2 | z2 C,,2 D,,2 E,,2 | G,,2 F,,4 !^!E,,2 [A,,A,,]6 D,,4 E,,2 | %79
 A,,,4- A,,,C,,z/A,,, | B,,,4 E,,4 | !wedge!A,,,C,,B,,,A,,, | B,,,4 E,,4 | z x3 | %84
 E,,^D,,E,,F,, E,,D,,C,,B,,, | B,,,C,, D,,E,,^F,,G,, |[M:6/8] A,,4!f! !>!C,,2 A,,,8 | %87
V:2
 z4 | x6 | x4 | x8 | x8 | x8 | x8 | x8 | x10 | x8 | x6 | x4 | x4 | x7 | x4 | x7 | x8 | x4 | x4 | %19
 x5 | x4 | x8 | x6 | x6 | x4 | x5 | x8 |[M:3/4] x6 | x13/2 | x8 | x6 | x6 |[M:2/4] x6 | x2 [de]2 | %34
 x10 | x3 !wedge!d4 | x8 | x7 |[K:G] x6 |[K:F] x4 | x4 | x8 | x8 |[M:2/2] x8 |[M:4/4] x8 | x8 | %46
[M:2/4][K:bass+8] z2 B, G, | x5 | z2 A,4 | x4 | x4 | x4 |[M:2/4][K:bass] x11[K:bass-8] x10 | x8 | %54
 x4 | x10 |[M:2/4][K:bass+8] x7 | x4 | x4 | x6 | x11/2 | x4 | x6 | x4 | x8 | x4 | x6 | x7 | x8 | %69
 x4 | x6 | x4 | x8 | x6 | x8 | x4 | x8 | x8 | x20 | x15/2 | x8 | x4 | x8 | !arpeggio!MA,,, x3 | %84
 x8 | x6 |[M:6/8] x14 | %87

